public/images/home/bootstrap.svg

<svg width="154" height="47" viewBox="0 0 154 47" fill="none" xmlns="http://www.w3.org/2000/svg">
<path d="M46.457 38.6739C46.457 42.8467 43.0429 46.2608 38.87 46.2608H8.5223C4.34948 46.2608 0.935364 42.8467 0.935364 38.6739V8.32613C0.935364 4.15332 4.34948 0.739197 8.5223 0.739197H38.87C43.0429 0.739197 46.457 4.15332 46.457 8.32613V38.6739Z" fill="#563D7C"/>
<path d="M13.3052 10.632H26.2104C28.5906 10.632 30.5022 11.1749 31.9378 12.2684C33.3734 13.3618 34.0949 15.0056 34.0949 17.2147C34.0949 18.5536 33.7676 19.6991 33.113 20.6512C32.4585 21.6033 31.5213 22.3471 30.3014 22.8677V22.9421C31.9378 23.2917 33.18 24.0653 34.0205 25.2628C34.861 26.4678 35.285 27.9703 35.285 29.7852C35.285 30.8266 35.099 31.801 34.7271 32.701C34.3552 33.6085 33.775 34.3895 32.9791 35.044C32.1833 35.6986 31.1717 36.2193 29.9295 36.6061C28.6873 36.9928 27.2146 37.1862 25.5038 37.1862H13.3052V10.632ZM17.954 21.752H25.541C26.6567 21.752 27.5865 21.4396 28.3303 20.7999C29.0741 20.1603 29.446 19.2528 29.446 18.0627C29.446 16.7238 29.1113 15.7792 28.4419 15.2362C27.7724 14.6932 26.8055 14.418 25.541 14.418H17.954V21.752ZM17.954 33.3928H26.1732C27.5865 33.3928 28.6873 33.0283 29.4609 32.2919C30.2419 31.563 30.6361 30.5216 30.6361 29.1828C30.6361 27.8662 30.2493 26.862 29.4609 26.148C28.6724 25.4339 27.5865 25.0918 26.1732 25.0918H17.954V33.3928Z" fill="white"/>
<path d="M64.798 24.1323C65.5661 24.3839 66.1753 24.8077 66.6255 25.4036C67.0758 25.9863 67.3009 26.7146 67.3009 27.5886C67.3009 28.7937 66.8374 29.7273 65.9104 30.3895C64.9834 31.0383 63.6327 31.3628 61.8582 31.3628H54.9455V17.458H61.4609C63.103 17.458 64.3676 17.7825 65.2549 18.4313C66.1422 19.067 66.5858 19.9476 66.5858 21.0733C66.5858 21.7619 66.4269 22.371 66.109 22.9007C65.7912 23.4304 65.3542 23.841 64.798 24.1323ZM57.5278 19.4841V23.3179H61.1828C62.0833 23.3179 62.7719 23.159 63.2486 22.8411C63.7386 22.5101 63.9836 22.0333 63.9836 21.4109C63.9836 20.7753 63.7386 20.2986 63.2486 19.9807C62.7719 19.6497 62.0833 19.4841 61.1828 19.4841H57.5278ZM61.6992 29.3367C63.6989 29.3367 64.6987 28.6679 64.6987 27.3304C64.6987 25.9929 63.6989 25.3241 61.6992 25.3241H57.5278V29.3367H61.6992Z" fill="#563D7C"/>
<path d="M74.5858 31.5018C73.5132 31.5018 72.5465 31.2701 71.6857 30.8066C70.8249 30.3431 70.1496 29.7008 69.6596 28.8798C69.1828 28.0455 68.9445 27.1053 68.9445 26.0591C68.9445 25.0129 69.1828 24.0793 69.6596 23.2583C70.1496 22.4372 70.8249 21.795 71.6857 21.3315C72.5465 20.868 73.5132 20.6362 74.5858 20.6362C75.6717 20.6362 76.6451 20.868 77.5058 21.3315C78.3666 21.795 79.0354 22.4372 79.5121 23.2583C80.0021 24.0793 80.2471 25.0129 80.2471 26.0591C80.2471 27.1053 80.0021 28.0455 79.5121 28.8798C79.0354 29.7008 78.3666 30.3431 77.5058 30.8066C76.6451 31.2701 75.6717 31.5018 74.5858 31.5018ZM74.5858 29.3764C75.4996 29.3764 76.2544 29.0718 76.8503 28.4627C77.4463 27.8535 77.7442 27.0523 77.7442 26.0591C77.7442 25.0659 77.4463 24.2647 76.8503 23.6556C76.2544 23.0464 75.4996 22.7418 74.5858 22.7418C73.6721 22.7418 72.9173 23.0464 72.3214 23.6556C71.7387 24.2647 71.4473 25.0659 71.4473 26.0591C71.4473 27.0523 71.7387 27.8535 72.3214 28.4627C72.9173 29.0718 73.6721 29.3764 74.5858 29.3764Z" fill="#563D7C"/>
<path d="M87.3888 31.5018C86.3161 31.5018 85.3494 31.2701 84.4887 30.8066C83.6279 30.3431 82.9525 29.7008 82.4625 28.8798C81.9858 28.0455 81.7474 27.1053 81.7474 26.0591C81.7474 25.0129 81.9858 24.0793 82.4625 23.2583C82.9525 22.4372 83.6279 21.795 84.4887 21.3315C85.3494 20.868 86.3161 20.6362 87.3888 20.6362C88.4747 20.6362 89.448 20.868 90.3088 21.3315C91.1696 21.795 91.8383 22.4372 92.3151 23.2583C92.805 24.0793 93.05 25.0129 93.05 26.0591C93.05 27.1053 92.805 28.0455 92.3151 28.8798C91.8383 29.7008 91.1696 30.3431 90.3088 30.8066C89.448 31.2701 88.4747 31.5018 87.3888 31.5018ZM87.3888 29.3764C88.3025 29.3764 89.0574 29.0718 89.6533 28.4627C90.2492 27.8535 90.5472 27.0523 90.5472 26.0591C90.5472 25.0659 90.2492 24.2647 89.6533 23.6556C89.0574 23.0464 88.3025 22.7418 87.3888 22.7418C86.4751 22.7418 85.7202 23.0464 85.1243 23.6556C84.5416 24.2647 84.2503 25.0659 84.2503 26.0591C84.2503 27.0523 84.5416 27.8535 85.1243 28.4627C85.7202 29.0718 86.4751 29.3764 87.3888 29.3764Z" fill="#563D7C"/>
<path d="M101.801 30.7867C101.509 31.0251 101.152 31.2039 100.728 31.3231C100.318 31.4422 99.8805 31.5018 99.4171 31.5018C98.2517 31.5018 97.3512 31.1973 96.7156 30.5881C96.0799 29.9789 95.7621 29.0917 95.7621 27.9263V22.8213H94.0141V20.8349H95.7621V18.4115H98.2451V20.8349H101.086V22.8213H98.2451V27.8667C98.2451 28.3832 98.3709 28.7805 98.6225 29.0586C98.8741 29.3234 99.2383 29.4558 99.715 29.4558C100.271 29.4558 100.735 29.3102 101.105 29.0188L101.801 30.7867Z" fill="#563D7C"/>
<path d="M107.121 31.5018C106.26 31.5018 105.419 31.3893 104.598 31.1642C103.777 30.939 103.122 30.6543 102.632 30.31L103.585 28.4229C104.062 28.7407 104.631 28.999 105.293 29.1976C105.969 29.383 106.631 29.4757 107.28 29.4757C108.763 29.4757 109.505 29.0851 109.505 28.3037C109.505 27.9329 109.313 27.6747 108.928 27.529C108.558 27.3834 107.955 27.2443 107.121 27.1119C106.247 26.9795 105.532 26.8272 104.976 26.655C104.433 26.4829 103.956 26.1849 103.545 25.7612C103.148 25.3241 102.949 24.7216 102.949 23.9535C102.949 22.9471 103.367 22.1459 104.201 21.55C105.048 20.9408 106.187 20.6362 107.617 20.6362C108.346 20.6362 109.074 20.7223 109.802 20.8945C110.531 21.0534 111.127 21.2719 111.59 21.55L110.637 23.4371C109.736 22.9074 108.723 22.6425 107.598 22.6425C106.869 22.6425 106.313 22.7551 105.929 22.9802C105.558 23.1921 105.373 23.4768 105.373 23.8343C105.373 24.2316 105.571 24.5163 105.969 24.6885C106.379 24.8474 107.008 24.9997 107.856 25.1454C108.703 25.2778 109.399 25.4301 109.942 25.6022C110.484 25.7744 110.948 26.0657 111.332 26.4763C111.729 26.8868 111.928 27.4695 111.928 28.2243C111.928 29.2175 111.498 30.012 110.637 30.608C109.776 31.2039 108.604 31.5018 107.121 31.5018Z" fill="#563D7C"/>
<path d="M120.443 30.7867C120.151 31.0251 119.794 31.2039 119.37 31.3231C118.959 31.4422 118.522 31.5018 118.059 31.5018C116.894 31.5018 115.993 31.1973 115.357 30.5881C114.722 29.9789 114.404 29.0917 114.404 27.9263V22.8213H112.656V20.8349H114.404V18.4115H116.887V20.8349H119.728V22.8213H116.887V27.8667C116.887 28.3832 117.013 28.7805 117.264 29.0586C117.516 29.3234 117.88 29.4558 118.357 29.4558C118.913 29.4558 119.377 29.3102 119.747 29.0188L120.443 30.7867Z" fill="#563D7C"/>
<path d="M124.849 22.3048C125.564 21.1924 126.822 20.6362 128.623 20.6362V23.0001C128.411 22.9603 128.219 22.9405 128.047 22.9405C127.08 22.9405 126.326 23.2252 125.783 23.7946C125.24 24.3508 124.968 25.1586 124.968 26.218V31.3628H122.485V20.7554H124.849V22.3048Z" fill="#563D7C"/>
<path d="M134.724 20.6362C136.286 20.6362 137.478 21.0137 138.299 21.7685C139.133 22.5101 139.551 23.6357 139.551 25.1454V31.3628H137.207V30.0716C136.902 30.5351 136.465 30.8927 135.896 31.1443C135.339 31.3827 134.664 31.5018 133.869 31.5018C133.075 31.5018 132.38 31.3694 131.784 31.1046C131.188 30.8265 130.724 30.449 130.393 29.9723C130.075 29.4823 129.916 28.9328 129.916 28.3236C129.916 27.3701 130.267 26.6087 130.969 26.0392C131.684 25.4566 132.803 25.1652 134.326 25.1652H137.068V25.0063C137.068 24.2647 136.842 23.6953 136.392 23.298C135.955 22.9007 135.3 22.7021 134.426 22.7021C133.83 22.7021 133.24 22.7948 132.658 22.9802C132.088 23.1656 131.605 23.4238 131.208 23.7549L130.234 21.9473C130.79 21.5235 131.459 21.1991 132.241 20.9739C133.022 20.7488 133.85 20.6362 134.724 20.6362ZM134.386 29.6942C135.008 29.6942 135.558 29.5552 136.035 29.2771C136.525 28.9857 136.869 28.5752 137.068 28.0455V26.8139H134.505C133.075 26.8139 132.36 27.2841 132.36 28.2243C132.36 28.6745 132.539 29.0321 132.896 29.2969C133.254 29.5618 133.75 29.6942 134.386 29.6942Z" fill="#563D7C"/>
<path d="M148.617 20.6362C149.65 20.6362 150.57 20.8614 151.378 21.3116C152.199 21.7619 152.841 22.3975 153.305 23.2186C153.768 24.0396 154 24.9865 154 26.0591C154 27.1318 153.768 28.0852 153.305 28.9195C152.841 29.7406 152.199 30.3762 151.378 30.8265C150.57 31.2767 149.65 31.5018 148.617 31.5018C147.187 31.5018 146.054 31.0251 145.22 30.0716V35.2164H142.737V20.7554H145.101V22.1459C145.511 21.6427 146.015 21.2653 146.611 21.0137C147.22 20.762 147.889 20.6362 148.617 20.6362ZM148.339 29.3764C149.253 29.3764 150.001 29.0718 150.583 28.4627C151.179 27.8535 151.477 27.0523 151.477 26.0591C151.477 25.0659 151.179 24.2647 150.583 23.6556C150.001 23.0464 149.253 22.7418 148.339 22.7418C147.743 22.7418 147.207 22.8809 146.73 23.159C146.253 23.4238 145.876 23.8079 145.598 24.3111C145.319 24.8143 145.18 25.397 145.18 26.0591C145.18 26.7212 145.319 27.3039 145.598 27.8071C145.876 28.3104 146.253 28.701 146.73 28.9791C147.207 29.244 147.743 29.3764 148.339 29.3764Z" fill="#563D7C"/>
</svg>

<svg xmlns="http://www.w3.org/2000/svg" width="154" height="47" fill="none" xmlns:v="https://vecta.io/nano"><path d="M46.457 38.674c0 4.173-3.414 7.587-7.587 7.587H8.522c-4.173 0-7.587-3.414-7.587-7.587V8.326C.935 4.153 4.349.739 8.522.739H38.87c4.173 0 7.587 3.414 7.587 7.587v30.348z" fill="#563d7c"/><path d="M13.305 10.632H26.21c2.38 0 4.292.543 5.727 1.636s2.157 2.737 2.157 4.946c0 1.339-.327 2.484-.982 3.436s-1.592 1.696-2.812 2.217v.074c1.636.35 2.879 1.123 3.719 2.321.84 1.205 1.264 2.708 1.264 4.522 0 1.041-.186 2.016-.558 2.916a5.89 5.89 0 0 1-1.748 2.343c-.796.655-1.807 1.175-3.05 1.562s-2.715.58-4.426.58H13.305V10.632zm4.649 11.12h7.587c1.116 0 2.046-.312 2.789-.952s1.116-1.547 1.116-2.737c0-1.339-.335-2.283-1.004-2.826s-1.636-.818-2.901-.818h-7.587v7.334zm0 11.641h8.219c1.413 0 2.514-.364 3.288-1.101.781-.729 1.175-1.77 1.175-3.109 0-1.317-.387-2.321-1.175-3.035s-1.874-1.056-3.288-1.056h-8.219v8.301z" fill="#fff"/><path d="M64.798 24.132c.768.252 1.377.675 1.828 1.271.45.583.675 1.311.675 2.185 0 1.205-.463 2.139-1.391 2.801-.927.649-2.278.973-4.052.973h-6.913V17.458h6.515c1.642 0 2.907.325 3.794.973.887.636 1.331 1.516 1.331 2.642 0 .689-.159 1.298-.477 1.827s-.755.94-1.311 1.232zm-7.27-4.648v3.834h3.655c.901 0 1.589-.159 2.066-.477.49-.331.735-.808.735-1.43 0-.636-.245-1.112-.735-1.43-.477-.331-1.165-.497-2.066-.497h-3.655zm4.171 9.853c2 0 3-.669 3-2.006s-1-2.006-3-2.006h-4.171v4.013h4.171zm12.887 2.165c-1.073 0-2.039-.232-2.9-.695a5.16 5.16 0 0 1-2.026-1.927c-.477-.834-.715-1.774-.715-2.821s.238-1.98.715-2.801a5.16 5.16 0 0 1 2.026-1.927c.861-.463 1.828-.695 2.9-.695 1.086 0 2.059.232 2.92.695a5.02 5.02 0 0 1 2.006 1.927c.49.821.735 1.755.735 2.801s-.245 1.986-.735 2.821a5.02 5.02 0 0 1-2.006 1.927c-.861.463-1.834.695-2.92.695zm0-2.125c.914 0 1.669-.305 2.264-.914s.894-1.41.894-2.404-.298-1.794-.894-2.404-1.351-.914-2.264-.914-1.669.305-2.264.914c-.583.609-.874 1.41-.874 2.404s.291 1.794.874 2.404c.596.609 1.351.914 2.264.914zm12.803 2.125c-1.073 0-2.039-.232-2.9-.695a5.16 5.16 0 0 1-2.026-1.927c-.477-.834-.715-1.774-.715-2.821s.238-1.98.715-2.801a5.16 5.16 0 0 1 2.026-1.927c.861-.463 1.827-.695 2.9-.695 1.086 0 2.059.232 2.92.695a5.02 5.02 0 0 1 2.006 1.927c.49.821.735 1.755.735 2.801s-.245 1.986-.735 2.821a5.02 5.02 0 0 1-2.006 1.927c-.861.463-1.834.695-2.92.695zm0-2.125c.914 0 1.669-.305 2.264-.914s.894-1.41.894-2.404-.298-1.794-.894-2.404-1.351-.914-2.264-.914-1.669.305-2.264.914c-.583.609-.874 1.41-.874 2.404s.291 1.794.874 2.404c.596.609 1.351.914 2.264.914zm14.412 1.41c-.292.238-.649.417-1.073.536a4.68 4.68 0 0 1-1.311.179c-1.165 0-2.066-.305-2.702-.914s-.953-1.496-.953-2.662v-5.105h-1.748v-1.986h1.748v-2.423h2.483v2.423h2.841v1.986h-2.841v5.045c0 .516.126.914.377 1.192.252.265.616.397 1.093.397.556 0 1.02-.146 1.39-.437l.696 1.768zm5.32.715a9.5 9.5 0 0 1-2.523-.338c-.821-.225-1.476-.51-1.966-.854l.953-1.887c.477.318 1.046.576 1.708.775a7.49 7.49 0 0 0 1.987.278c1.483 0 2.225-.391 2.225-1.172 0-.371-.192-.629-.577-.775-.37-.146-.973-.285-1.807-.417-.874-.132-1.589-.285-2.145-.457a3.4 3.4 0 0 1-1.431-.894c-.397-.437-.596-1.04-.596-1.808 0-1.006.418-1.808 1.252-2.403.847-.609 1.986-.914 3.416-.914a9.46 9.46 0 0 1 2.185.258c.729.159 1.325.377 1.788.656l-.953 1.887c-.901-.53-1.914-.795-3.039-.795-.729 0-1.285.113-1.669.338-.371.212-.556.497-.556.854 0 .397.198.682.596.854.41.159 1.039.311 1.887.457.847.132 1.543.285 2.086.457s1.006.463 1.39.874c.397.411.596.993.596 1.748 0 .993-.43 1.788-1.291 2.384s-2.033.894-3.516.894zm13.322-.715c-.292.238-.649.417-1.073.536a4.69 4.69 0 0 1-1.311.179c-1.165 0-2.066-.305-2.702-.914s-.953-1.496-.953-2.662v-5.105h-1.748v-1.986h1.748v-2.423h2.483v2.423h2.841v1.986h-2.841v5.045c0 .516.126.914.377 1.192.252.265.616.397 1.093.397.556 0 1.02-.146 1.39-.437l.696 1.768zm4.406-8.482c.715-1.112 1.973-1.669 3.774-1.669V23c-.212-.04-.404-.06-.576-.06-.967 0-1.721.285-2.264.854-.543.556-.815 1.364-.815 2.423v5.145h-2.483V20.755h2.364v1.549zm9.875-1.669c1.562 0 2.754.378 3.575 1.132.834.742 1.252 1.867 1.252 3.377v6.217h-2.344v-1.291c-.305.463-.742.821-1.311 1.073-.557.238-1.232.357-2.027.357s-1.489-.132-2.085-.397c-.596-.278-1.06-.656-1.391-1.132-.318-.49-.477-1.04-.477-1.649 0-.953.351-1.715 1.053-2.284.715-.583 1.834-.874 3.357-.874h2.742v-.159c0-.742-.226-1.311-.676-1.708-.437-.397-1.092-.596-1.966-.596a5.81 5.81 0 0 0-1.768.278c-.57.185-1.053.444-1.45.775l-.974-1.808c.556-.424 1.225-.748 2.007-.973s1.609-.338 2.483-.338zm-.338 9.058c.622 0 1.172-.139 1.649-.417a2.36 2.36 0 0 0 1.033-1.232v-1.232h-2.563c-1.43 0-2.145.47-2.145 1.41 0 .45.179.808.536 1.073s.854.397 1.49.397zm14.231-9.058c1.033 0 1.953.225 2.761.675.821.45 1.463 1.086 1.927 1.907s.695 1.768.695 2.841-.232 2.026-.695 2.86c-.464.821-1.106 1.457-1.927 1.907-.808.45-1.728.675-2.761.675-1.43 0-2.563-.477-3.397-1.43v5.145h-2.483V20.755h2.364v1.39a3.85 3.85 0 0 1 1.51-1.132c.609-.252 1.278-.378 2.006-.378zm-.278 8.74c.914 0 1.662-.305 2.244-.914.596-.609.894-1.41.894-2.404s-.298-1.794-.894-2.404c-.582-.609-1.33-.914-2.244-.914-.596 0-1.132.139-1.609.417a2.87 2.87 0 0 0-1.132 1.152c-.279.503-.418 1.086-.418 1.748s.139 1.245.418 1.748a3.01 3.01 0 0 0 1.132 1.172c.477.265 1.013.397 1.609.397z" fill="#563d7c"/></svg>
